X:1
T:Nomen Tersanctum, 88.88.88.88.88
T:Nomen Tersanctum, 88.88.88.88.88
T:Joseph Barnby, 1889
T:Public Domain Courtesy of the Cyber Hymnal™
C:Joseph Barnby, 1889
Z:Public Domain
Z:Courtesy of the Cyber Hymnal™
%%score ( 1 2 ) ( 3 4 )
L:1/8
Q:1/4=110
M:none
K:F
V:1 treble 
V:2 treble 
V:3 bass 
V:4 bass 
V:1
 [Gc]2 | [FA]2 [EG]2 F2 [DG]2 | E3 z E [CF]2 [CG]2 | [CA]2 [Ed]2 [Fc]2 [FA]2 | %4
 F2 (GA) [EG]2 [Gc]2 | [FA]2 [_EA]2 [Dd]2 [^Fc]2 | [Gc]3 [GB] [GB]2 [DB]2 | [^CA]2 [EG]2 F2 [FG]2 | %8
 A3 z G F2 F2 | F2 G2 A2 B2 x6 | B3 A [=EA]2 [EGA]2 | [GA]2 [GB]2 [^Fc]2 [Fd]2 | %12
 [^Fc]3 [GB] [DGB]2 [DB]2 | [^CA]2 [EG]2 [DF]2 [DB]2 | [^CA]2 E2 [DF]2 [EG]2 | %15
 [FA]2 [F=B]2 [Ec]2 [Ad]2 | =B6 z2 c2 | [Ec]8 | [Ec]4 [Ec]2 [Ec]2 | [Fc]2 [Fc]2 [Dd]2 [Ed]2 | %20
 [Fc]4 [Fc]4 | [G_e]2 [Fd]2 [=Ec]2 [F=B]2 | c6 z2 G2 | [FA]6 |] %24
V:2
 x2 | x4 F2 x2 | C2 C2 x5 | x8 | F2 F2 x4 | x8 | x8 | x4 F2 x2 | F2 (E2 F2) F2 x | D8 G2 A2 B2 | %10
 _E4 x4 | x8 | D4 x4 | x8 | x2 E2 x4 | x8 | G4 F4 x2 | x8 | x8 | x8 | x8 | x8 | F4 E4 x2 | x6 |] %24
V:3
 [E,C]2 | [F,C]2 [C,B,]2 [D,A,]2 [B,,B,]2 | [C,G,]2 [C,C]2 [D,C]2 [E,B,]2 x | %3
 [F,A,]2 [G,B,]2 [A,C]2 [F,C]2 | [D,C]2 [G,=B,]2 [C,C]2 [E,C]2 | [F,C]2 [F,C]2 [^F,A,]2 [D,D]2 | %6
 [G,D]3 [G,D] [G,D]2 [G,,G,]2 | [A,,E,]2 [^C,A,]2 [D,A,]2 [D,B,]2 | [C,C]2 [C,B,]2 [F,A,]2 F,2 x | %9
 F,2 G,2 A,2 B,2 x6 | B,3 A, [C,A,]2 [C,A,]2 | [D,A,]2 [D,B,]2 [D,C]2 [D,D]2 | %12
 [G,C]3 [G,B,] [G,B,]2 [E,G,]2 | A,2 [^C,A,]2 [D,A,]2 [G,,G,]2 | %14
 [A,,E,]2 [^C,A,]2 [D,A,]2 [C,^C]2 | [F,C]2 [D,D]2 [A,C]2 [F,F]2 | [G,D]4 G,4 x2 | [C,G,]8 | %18
 [C,G,]4 [C,G,]2 [C,G,]2 | [F,A,]2 A,2 [B,,F,]2 [B,,G,]2 | [F,A,]4 [F,A,]4 | %21
 [_E,B,]2 [B,,B,]2 [C,G,]2 [D,F,]2 | [C,G,]4 [C,C]4 x2 | [F,C]6 |] %24
V:4
 x2 | x8 | x9 | x8 | x8 | x8 | x8 | x8 | x6 F,2 x | F,2 G,2 A,2 B,2 x6 | C,4 x4 | x8 | x8 | %13
 A,2 x6 | x8 | x8 | x4 G,4 x2 | x8 | x8 | x8 | x8 | x8 | x10 | x6 |] %24

